src/Include/images/Note.svg

<?xml version="1.0" encoding="UTF-8"?>
<svg width="16" height="16" version="1.1" viewBox="0 0 16 16" xmlns="http://www.w3.org/2000/svg">
 <g id="outline" fill="#f6f6f6">
  <path d="m0 0h16v16h-16z" fill-opacity="0"/>
  <path d="M 11.653,5 C 11.874,4.541 12,4.033 12,3.5 12,1.57 10.43,0 8.5,0 6.57,0 5,1.57 5,3.5 5,4.033 5.126,4.541 5.347,5 H 2 V 16 H 15 V 5 Z"/>
 </g>
 <g id="icon_x5F_bg" fill="#424242">
  <path d="M 7.717,5.862 8.501,9 9.285,5.861 A 2.49,2.49 0 0 0 11,3.5 2.5,2.5 0 1 0 6,3.5 c 0,1.105 0.722,2.032 1.717,2.362 z"/>
  <path d="m10.936 6a3.434 3.434 0 0 1-0.8 0.582l-0.105 0.418h2.969v7h-9v-7h2.97l-0.104-0.416a3.504 3.504 0 0 1-0.802-0.584h-3.064v9h11v-9z"/>
 </g>
 <path id="icon_x5F_fg" d="m10.031 7-0.56 2.242h-1.94l-0.561-2.242h-2.97v7h9v-7z" fill="#ffff00"/>
</svg>

<?xml version="1.0" encoding="UTF-8" standalone="no"?>
<svg
   viewBox="0 0 16 16"
   version="1.1"
   id="svg15"
   sodipodi:docname="Note.svg"
   width="16"
   height="16"
   inkscape:export-filename="D:\AgilityBook\AgilityBook\src\Include\images\Note@2x.png"
   inkscape:export-xdpi="192"
   inkscape:export-ydpi="192"
   inkscape:version="1.1.1 (3bf5ae0d25, 2021-09-20)"
   xmlns:inkscape="http://www.inkscape.org/namespaces/inkscape"
   xmlns:sodipodi="http://sodipodi.sourceforge.net/DTD/sodipodi-0.dtd"
   xmlns="http://www.w3.org/2000/svg"
   xmlns:svg="http://www.w3.org/2000/svg">
  <defs
     id="defs19" />
  <sodipodi:namedview
     id="namedview17"
     pagecolor="#ffffff"
     bordercolor="#666666"
     borderopacity="1.0"
     inkscape:pageshadow="2"
     inkscape:pageopacity="0.0"
     inkscape:pagecheckerboard="true"
     showgrid="false"
     fit-margin-top="0"
     fit-margin-left="0"
     fit-margin-right="0"
     fit-margin-bottom="0"
     inkscape:zoom="54.5625"
     inkscape:cx="7.9908362"
     inkscape:cy="8"
     inkscape:window-width="2256"
     inkscape:window-height="1329"
     inkscape:window-x="123"
     inkscape:window-y="579"
     inkscape:window-maximized="0"
     inkscape:current-layer="svg15" />
  <style
     id="style2">.st0{opacity:0}.st0,.st1{fill:#f6f6f6}.st2{fill:#424242}.st3{fill:#f0eff1}</style>
  <g
     id="outline">
    <path
       class="st0"
       d="M 0,0 H 16 V 16 H 0 Z"
       id="path4" />
    <path
       class="st1"
       d="M 11.653,5 C 11.874,4.541 12,4.033 12,3.5 12,1.57 10.43,0 8.5,0 6.57,0 5,1.57 5,3.5 5,4.033 5.126,4.541 5.347,5 H 2 V 16 H 15 V 5 Z"
       id="path6" />
  </g>
  <g
     id="icon_x5F_bg">
    <path
       class="st2"
       d="M 7.717,5.862 8.501,9 9.285,5.861 A 2.49,2.49 0 0 0 11,3.5 2.5,2.5 0 1 0 6,3.5 c 0,1.105 0.722,2.032 1.717,2.362 z"
       id="path9" />
    <path
       class="st2"
       d="m 10.936,6 a 3.434,3.434 0 0 1 -0.8,0.582 L 10.031,7 H 13 v 7 H 4 V 7 H 6.97 L 6.866,6.584 A 3.504,3.504 0 0 1 6.064,6 H 3 v 9 H 14 V 6 Z"
       id="path11" />
  </g>
  <path
     class="st3"
     d="M 10.031,7 9.471,9.242 H 7.531 L 6.97,7 H 4 v 7 h 9 V 7 Z"
     id="icon_x5F_fg"
     style="fill:#ffff00;fill-opacity:1" />
</svg>
